cssgg/arrows-breake-h.svg

<svg
  width="24"
  height="24"
  viewBox="0 0 24 24"
  fill="none"
  xmlns="http://www.w3.org/2000/svg"
>
  <path
    d="M9.24268 7H11.2427V11.0001H11.2477V13.0001H11.2427V17H9.24268V13.0001L4.82846 13L6.65685 14.8284L5.24264 16.2426L1 12L5.24264 7.75732L6.65685 9.17154L4.82839 11H9.24264L9.24268 7Z"
    fill="currentColor"
  />
  <path
    d="M15.2527 7.00012H13.2527V11.0001H13.2477V13.0001H13.2527V17.0001H15.2527V13.0001L19.667 13L17.8385 14.8285L19.2527 16.2427L23.4954 12L19.2527 7.75739L17.8385 9.17161L19.6669 11H15.2527L15.2527 7.00012Z"
    fill="currentColor"
  />
</svg>

<svg viewBox="0 0 24 24" xmlns="http://www.w3.org/2000/svg"><g><path d="M9.24 7h2v4h0v2h-.01v3.99H9.22v-4l-4.42-.01 1.82 1.82 -1.42 1.41 -4.25-4.25 4.24-4.25L6.6 9.12l-1.83 1.82h4.41l0-4Z"/><path d="M15.25 7h-2v3.99h-.01v2h0v4h2v-4l4.41-.01 -1.83 1.82 1.41 1.41 4.24-4.25 -4.25-4.25 -1.42 1.41 1.82 1.82H15.2v-4Z"/></g></svg>
